static/icons/apple-appstore.svg

<svg xmlns="http://www.w3.org/2000/svg" width="32" height="33" fill="none">
  <path fill="#7EBBE5" d="M16 2.83301c-7.73375 0-14 6.26625-14 13.99999 0 7.7338 6.26625 14 14 14 7.7337 0 14-6.2662 14-14 0-7.73374-6.2663-13.99999-14-13.99999ZM10.6875 22.9511c-.0859.1466-.2089.2679-.3566.3518-.1476.0839-.3148.1275-.48465.1264-.17311.0015-.34322-.0453-.49125-.135-.11022-.0639-.20674-.1489-.28402-.2502-.07728-.1013-.1338-.2168-.16632-.34-.03252-.1231-.0404-.2515-.02318-.3777.01722-.1262.0592-.2478.12352-.3578l.95562-1.5887c.04828-.082.11718-.15.19988-.1971.0826-.0472.1762-.0719.2714-.0717h.1412c.6931 0 1.1782.4169 1.3194.8207l-1.205 2.0193Zm8.0906-3.125-6.2581.0069H8.36063c-.13087.0006-.26048-.0255-.38098-.0765-.1205-.0511-.22938-.1261-.32002-.2204-.09065-.0944-.16118-.2062-.20731-.3287-.04614-.1225-.06691-.253-.06107-.3838.02-.525.47812-.9225 1-.9225h3.01495l3.5744-6.0843-1.1575-1.97192c-.2606-.44937-.145-1.04187.3019-1.32437.1102-.07125.2336-.11949.3629-.14181.1293-.02232.2618-.01827.3894.01191.1277.03019.248.08588.3536.16373.1056.07785.1944.17625.261.28929l.6187 1.05688h.0069l.6194-1.05688c.0667-.11245.1553-.21032.2606-.28778.1053-.07747.2252-.13293.3524-.16308.1272-.03016.2591-.03439.388-.01244.1289.02195.252.06962.3621.14018.4444.2825.5588.875.2962 1.32625l-1.1574 1.97184-1.125 1.9182-2.4432 4.1662v.0069h3.6006c.4513 0 1.0169.2425 1.2457.6325l.02.0406c.2019.3431.3162.5788.3162.9219-.0033.1114-.0281.2211-.0731.3231l-.0019-.0019Zm4.8594.0069h-1.6944v.0069l1.2388 2.1069c.1332.2219.174.4872.1136.7388-.0605.2517-.2173.4696-.4368.6068-.1521.0927-.3268.1418-.5049.1419-.1694-.0001-.3359-.044-.4833-.1275-.1475-.0834-.2708-.2036-.358-.3488l-1.8306-3.1162-1.1375-1.9375-1.4675-2.5088c-.2126-.3582-.3281-.7656-.3352-1.1821-.0072-.4165.0944-.8276.2945-1.1929.29-.5119.5119-.6462.5119-.6462l3.2644 5.5212h2.8069c.525 0 .9756.4038 1 .9219.005.1317-.0166.2631-.0636.3863-.047.1231-.1184.2355-.21.3304-.0915.0948-.2013.1702-.3227.2216-.1214.0514-.2519.0777-.3837.0773h-.0019Z"/>
</svg>

<svg width="32" height="33" viewBox="0 0 32 33" fill="none" xmlns="http://www.w3.org/2000/svg">
<path d="M16 2.83301C8.26625 2.83301 2 9.09926 2 16.833C2 24.5668 8.26625 30.833 16 30.833C23.7337 30.833 30 24.5668 30 16.833C30 9.09926 23.7337 2.83301 16 2.83301ZM10.6875 22.9511C10.6016 23.0977 10.4786 23.219 10.3309 23.3029C10.1833 23.3868 10.0161 23.4304 9.84625 23.4293C9.67314 23.4308 9.50303 23.384 9.355 23.2943C9.24478 23.2304 9.14826 23.1454 9.07098 23.0441C8.9937 22.9428 8.93718 22.8273 8.90466 22.7041C8.87214 22.581 8.86426 22.4526 8.88148 22.3264C8.8987 22.2002 8.94068 22.0786 9.005 21.9686L9.96062 20.3799C10.0089 20.2979 10.0778 20.2299 10.1605 20.1828C10.2431 20.1356 10.3367 20.1109 10.4319 20.1111H10.5731C11.2662 20.1111 11.7513 20.528 11.8925 20.9318L10.6875 22.9511ZM18.7781 19.8261L12.52 19.833H8.36063C8.22976 19.8336 8.10015 19.8075 7.97965 19.7565C7.85915 19.7054 7.75027 19.6304 7.65963 19.5361C7.56898 19.4417 7.49845 19.3299 7.45232 19.2074C7.40618 19.0849 7.38541 18.9544 7.39125 18.8236C7.41125 18.2986 7.86937 17.9011 8.39125 17.9011H11.4062L14.9806 11.8168L13.8231 9.84488C13.5625 9.39551 13.6781 8.80301 14.125 8.52051C14.2352 8.44926 14.3586 8.40102 14.4879 8.3787C14.6172 8.35638 14.7497 8.36043 14.8773 8.39061C15.005 8.4208 15.1253 8.47649 15.2309 8.55434C15.3365 8.63219 15.4253 8.73059 15.4919 8.84363L16.1106 9.90051H16.1175L16.7369 8.84363C16.8036 8.73118 16.8922 8.63331 16.9975 8.55585C17.1028 8.47838 17.2227 8.42292 17.3499 8.39277C17.4771 8.36261 17.609 8.35838 17.7379 8.38033C17.8668 8.40228 17.9899 8.44995 18.1 8.52051C18.5444 8.80301 18.6588 9.39551 18.3962 9.84676L17.2388 11.8186L16.1138 13.7368L13.6706 17.903V17.9099H17.2712C17.7225 17.9099 18.2881 18.1524 18.5169 18.5424L18.5369 18.583C18.7388 18.9261 18.8531 19.1618 18.8531 19.5049C18.8498 19.6163 18.825 19.726 18.78 19.828L18.7781 19.8261ZM23.6375 19.833H21.9431V19.8399L23.1819 21.9468C23.3151 22.1687 23.3559 22.434 23.2955 22.6856C23.235 22.9373 23.0782 23.1552 22.8587 23.2924C22.7066 23.3851 22.5319 23.4342 22.3538 23.4343C22.1844 23.4342 22.0179 23.3903 21.8705 23.3068C21.723 23.2234 21.5997 23.1032 21.5125 22.958L19.6819 19.8418L18.5444 17.9043L17.0769 15.3955C16.8643 15.0373 16.7488 14.6299 16.7417 14.2134C16.7345 13.7969 16.8361 13.3858 17.0362 13.0205C17.3262 12.5086 17.5481 12.3743 17.5481 12.3743L20.8125 17.8955H23.6194C24.1444 17.8955 24.595 18.2993 24.6194 18.8174C24.6244 18.9491 24.6028 19.0805 24.5558 19.2037C24.5088 19.3268 24.4374 19.4392 24.3458 19.5341C24.2543 19.6289 24.1445 19.7043 24.0231 19.7557C23.9017 19.8071 23.7712 19.8334 23.6394 19.833H23.6375Z" fill="#7EBBE5"/>
</svg>
